X:5060
T:Myhrpolska
M:3/4
L:1/8
K:C
S:by Per Myhr, 1843-1927; as played by Hoven Droven
C:Per Myhr
|:"C" G,B, C2 DE|CD B,3D|E2 (3EDE (3FzE |"G"DB, G,4 |
|"C" G,B, C2 DE|CD B,3D|E2 (3EDE (3FzE |1 "G"DB, "C"C2 z2 :|2 "G" DB, "C"C2 zE |
|"F" DB, C2 EG|FA G2E2|"G" EF D3B, |C2 D2 zE |
|"F" DB, C2 EG|FA G2E2|"G" EF D3B, |1 "C" C2 C2 zE:|2 "C" C2 C4 ||
